X: 3028
T: New French Dance
%R: minuet, waltz + bourr\'ee
B: Henry Playford "Apollo's Banquet", London 1687 (5th Edition)
F: https://archive.org/details/apollosbanquetco01rugg
Z: 2017 John Chambers <jc:trillian.mit.edu>
M: 3/4
L: 1/8
K: C
% - - - - - - - - - -
|:\
c2 G4 | c2 d2 e2 | f2 d2 e2 | A2 d4 |\
B2 c2 G2 | c2 d2 e2 | f2 d2 e2 | A2 d4 |\
B2 c2 G2 | A2 d2 A2 | B2 g2 c2 | d2 d4 |
c2 c2 G2 | A2 d2 A2 | B2 g2 c2 | d2 d4 |\
c2 e2 f2 | d2 d2 g2 | ^f2 d2 ed | (cB) A3 G |\
G2 g2 d2 | e2 f2 g2 | a2 A2 B2 | c2 c3 B |
c2 e2 f2 | d2 d2 g2 | f2 d2 ed | cB A3 G |\
G2 g2 d2 | e2 f2 g2 | a2 A2 B2 | c2 c3 B |\
[M:C|]\
c6 c2 | g2g2 g2fe | f2f2 f2ed |
e2A2 dedc | BcBA G2c2 | g2g2 g2fe | f2f2 f2ed |\
e2A2 dedc | B6 :: "_Bore."G2 | c2c2 c2Bc | A2A2 A2d2 |
B2G2 c2de | e4 d2 !segno!yg2 | g2fe f2f2 | f2ed efed | cBcd d4 | Hc6 |]\
y8 y8 y8 y8 y8 y8
% - - - - - - - - - -

%%sep 1 1 500
%%sep 1 1 500

